**kern	**kern	**dynam
*part1	*part1	*part1
*staff2	*staff1	*
*I"Piano	*	*
*clefF4	*clefG2	*
*k[f#]	*k[f#]	*
=1	=1	=1
*^	*^	*
8.GGL	2GG	(2b_	4rcyy	p
(16DJk 16B	.	.	.	.
4ryy	.	.	[4d)	.
=	=	=	=	=
!	!	!	!	!LO:DY:a
8.GGL	2GG	12bL]	4d]	<
.	.	12a	.	.
.	.	12ccJ	.	.
(16DJk 16c	.	.	.	.
!	!	!	!	!LO:DY:a
4ryy	.	12eeL	[4d)	[ >
.	.	12cc	.	.
.	.	12aJ	.	.
=	=	=	=	=
8.GGL	2GG	2g	4d]	]
(16DJk 16B	.	.	.	.
4ryy	.	.	([4d)	.
=	=	=	=	=
8.GGL	2GG	[2d))	4d]	.
(16DJk 16A	.	.	.	.
4ryy	.	.	4c)	.
*	*	*v	*v	*
=	=	=	=
8.GGL	2GG	4d]	.
(16DJk 16B	.	.	.
4ryy	.	[4d)	.
=	=	=	=
8.GGL	2GG	4d]	.
(16DJk 16A	.	.	.
4ryy	.	[4d)	.
=	=	=	=
8.GGL	2GG	4d]	.
(16DJk 16G	.	.	.
4ryy	.	[4d)	.
=	=	=	=
8.GGL	2GG	4d]	.
(16DJk 16G	.	.	.
4ryy	.	[4d)	.
*v	*v	*	*
=	=	=
*-	*-	*-
!!!system-decoration: {(s1,s2)}
